X: 02132
T: TOM TURKEY TWO-STEP
C: Bob McQuillen Nov.'75
B: Bob's Note Book 1&2 #132
%R: two-step, march
Z: 2019 John Chambers <jc:trillian.mit.edu>
M: C
L: 1/4
K: A
ECD \
| E>FED | CEAB | c>AcA | E>FED | CEAc | dcBA | cBB>c | BECD |
| E>FED | CEAB | cAcA | e2d2 | c>Bcd | ecBc | A2A>A | A :|
|: EAB \
| cc2d | cc2d | c>BAF | EFGA | B2B>c | BGAB | cc2d | cEAB |
| cc2d | cc2d | c>BAF | EFGA | B2B>c | dBAG | A2A>B | A :|
%%begintext align
%% Happy Thanksgiving!
%%endtext
